public/img/old-svg/mastercard.svg

<svg width="76" height="44" viewBox="0 0 76 44" fill="none" xmlns="http://www.w3.org/2000/svg">
<path fill-rule="evenodd" clip-rule="evenodd" d="M75.2342 40.7869C75.2342 42.0532 74.1068 43.0874 72.7262 43.0874H2.74251C1.36176 43.0874 0.234375 42.0532 0.234375 40.7869V2.38814C0.234375 1.12168 1.36176 0.0874023 2.74251 0.0874023H72.7262C74.107 0.0874023 75.2344 1.12168 75.2344 2.38814L75.2342 40.7869Z" fill="#F8F8F8"/>
<path fill-rule="evenodd" clip-rule="evenodd" d="M46.7308 33.9237L47.421 33.9113L48.1124 33.8724L48.7882 33.7815L49.4503 33.6781L50.0986 33.5359L50.7466 33.3815L51.3664 33.174L51.9867 32.955L52.5777 32.7085L53.1554 32.4375L53.7195 32.1398L54.2692 31.8173L54.8045 31.4686L55.3119 31.1065L55.7904 30.7189L56.2687 30.3045L56.7061 29.878L57.1296 29.4257L57.5376 28.9602L57.9181 28.4827L58.2561 27.9784L58.5949 27.4618L58.8762 26.9318L59.1581 26.3763L59.3977 25.8199L59.6096 25.2388L59.7926 24.6568L59.9468 24.0625L60.0604 23.4415L60.1451 22.8346L60.2006 22.2007L60.2143 21.5683L60.2006 20.9342L60.1451 20.3008L60.0604 19.6933L59.9468 19.0868L59.7926 18.4914L59.6096 17.9104L59.3977 17.3282L59.1581 16.7728L58.8762 16.2296L58.5949 15.6999L58.2561 15.183L57.9181 14.6789L57.5376 14.2011L57.1296 13.7357L56.7061 13.2835L56.2687 12.8569L55.7904 12.456L55.3119 12.0683L54.8045 11.6939L54.2692 11.3574L53.7195 11.034L53.1554 10.7373L52.5777 10.4653L51.9867 10.2198L51.3664 10.0007L50.7466 9.80653L50.0986 9.6387L49.4503 9.49651L48.7882 9.39317L48.1124 9.31548L47.421 9.26344L46.7308 9.25098L46.0404 9.26344L45.3647 9.31548L44.6879 9.39317L44.0263 9.49651L43.3774 9.6387L42.7297 9.80653L42.109 10.0007L41.5033 10.2198L40.9115 10.4653L40.3338 10.7373L39.7705 11.034L39.2208 11.3574L38.6999 11.6939L38.1915 12.0683L37.6988 12.456L37.2346 12.8569L36.783 13.2835L36.375 13.7357L35.9657 14.2011L35.5997 14.6789L35.2474 15.183L34.9239 15.6999L34.6273 16.2296L34.3598 16.7728L34.12 17.3282L33.9092 17.9104L33.7264 18.4914L33.5703 19.0868L33.4587 19.6933L33.3737 20.3008L33.3171 20.9342L33.3027 21.5683L33.3171 22.2007L33.3737 22.8346L33.4587 23.4415L33.5703 24.0625L33.7264 24.6568L33.9092 25.2388L34.12 25.8199L34.3598 26.3763L34.6273 26.9318L34.9239 27.4618L35.2474 27.9784L35.5997 28.4827L35.9657 28.9602L36.375 29.4257L36.783 29.878L37.2346 30.3045L37.6988 30.7189L38.1915 31.1065L38.6999 31.4686L39.2208 31.8173L39.7705 32.1398L40.3338 32.4375L40.9115 32.7085L41.5033 32.955L42.109 33.174L42.7297 33.3815L43.3774 33.5359L44.0263 33.6781L44.6879 33.7815L45.3647 33.8724L46.0404 33.9113L46.7308 33.9237Z" fill="#FBB230"/>
<path fill-rule="evenodd" clip-rule="evenodd" d="M28.7372 33.9237L29.4276 33.9113L30.1034 33.8724L30.7804 33.7815L31.4417 33.6781L32.0906 33.5359L32.7395 33.3815L33.3587 33.174L33.9641 32.955L34.5564 32.7085L35.1338 32.4375L35.6973 32.1398L36.2468 31.8173L36.7677 31.4686L37.2761 31.1065L37.7691 30.7189L38.233 30.3045L38.6846 29.878L39.0937 29.4257L39.5021 28.9602L39.868 28.4827L40.2202 27.9784L40.5437 27.4618L40.8403 26.9318L41.108 26.3763L41.3476 25.8199L41.5584 25.2388L41.7423 24.6568L41.8973 24.0625L42.0092 23.4415L42.0937 22.8346L42.1507 22.2007L42.1649 21.5683L42.1507 20.9342L42.0937 20.3008L42.0092 19.6933L41.8973 19.0868L41.7423 18.4914L41.5584 17.9104L41.3476 17.3282L41.108 16.7728L40.8403 16.2296L40.5437 15.6999L40.2202 15.183L39.868 14.6789L39.5021 14.2011L39.0937 13.7357L38.6846 13.2835L38.233 12.8569L37.7691 12.456L37.2761 12.0683L36.7677 11.6939L36.2468 11.3574L35.6973 11.034L35.1338 10.7373L34.5564 10.4653L33.9641 10.2198L33.3587 10.0007L32.7395 9.80653L32.0906 9.6387L31.4417 9.49651L30.7804 9.39317L30.1034 9.31548L29.4276 9.26344L28.7372 9.25098L28.0471 9.26344L27.3559 9.31548L26.6799 9.39317L26.0177 9.49651L25.3706 9.6387L24.7217 9.80653L24.1016 10.0007L23.4816 10.2198L22.8904 10.4653L22.3129 10.7373L21.7486 11.034L21.1999 11.3574L20.6644 11.6939L20.1564 12.0683L19.6777 12.456L19.1991 12.8569L18.7621 13.2835L18.3384 13.7357L17.9304 14.2011L17.5502 14.6789L17.2119 15.183L16.8732 15.6999L16.5921 16.2296L16.3099 16.7728L16.0703 17.3282L15.8595 17.9104L15.6754 18.4914L15.535 19.0868L15.4077 19.6933L15.3242 20.3008L15.2672 20.9342L15.2539 21.5683L15.2672 22.2007L15.3242 22.8346L15.4077 23.4415L15.535 24.0625L15.6754 24.6568L15.8595 25.2388L16.0703 25.8199L16.3099 26.3763L16.5921 26.9318L16.8732 27.4618L17.2119 27.9784L17.5502 28.4827L17.9304 28.9602L18.3384 29.4257L18.7621 29.878L19.1991 30.3045L19.6777 30.7189L20.1564 31.1065L20.6644 31.4686L21.1999 31.8173L21.7486 32.1398L22.3129 32.4375L22.8904 32.7085L23.4816 32.955L24.1016 33.174L24.7217 33.3815L25.3706 33.5359L26.0177 33.6781L26.6799 33.7815L27.3559 33.8724L28.0471 33.9113L28.7372 33.9237Z" fill="#EB2230"/>
<path fill-rule="evenodd" clip-rule="evenodd" d="M36.1641 13.9813H43.3084V13.3091H36.7841L36.1641 13.9813Z" fill="#FBB230"/>
<path fill-rule="evenodd" clip-rule="evenodd" d="M35.0898 15.4676H43.3048V14.7954H35.5127L35.0898 15.4676Z" fill="#FBB230"/>
<path fill-rule="evenodd" clip-rule="evenodd" d="M34.291 16.9544H43.3089V16.2822H34.6153L34.291 16.9544Z" fill="#FBB230"/>
<path fill-rule="evenodd" clip-rule="evenodd" d="M33.7383 18.4406H43.3059V17.7817H33.9635L33.7383 18.4406Z" fill="#FBB230"/>
<path fill-rule="evenodd" clip-rule="evenodd" d="M34.0642 25.6515H43.336V24.9795H33.8398L34.0642 25.6515Z" fill="#FBB230"/>
<path fill-rule="evenodd" clip-rule="evenodd" d="M34.7402 27.1383H43.3353V26.4663H34.4023L34.7402 27.1383Z" fill="#FBB230"/>
<path fill-rule="evenodd" clip-rule="evenodd" d="M35.7111 28.6253H43.3338V27.9531H35.2461L35.7111 28.6253Z" fill="#FBB230"/>
<path fill-rule="evenodd" clip-rule="evenodd" d="M37.0347 30.1112H43.3326V29.439H36.3867L37.0347 30.1112Z" fill="#FBB230"/>
<path fill-rule="evenodd" clip-rule="evenodd" d="M33.4141 19.9261H43.3051V19.2666H33.5547L33.4141 19.9261Z" fill="#FBB230"/>
<path fill-rule="evenodd" clip-rule="evenodd" d="M39.4473 24.1657H43.2237V23.4937H39.5888L39.4473 24.1657Z" fill="#FBB230"/>
<path fill-rule="evenodd" clip-rule="evenodd" d="M39.7422 22.6795H43.2228V22.0073H39.8837L39.7422 22.6795Z" fill="#FBB230"/>
<path fill-rule="evenodd" clip-rule="evenodd" d="M33.1602 22.0073H34.1462V22.6795H33.2174L33.1602 22.0073Z" fill="#FBB230"/>
<path fill-rule="evenodd" clip-rule="evenodd" d="M58.9185 28.5215C59.271 28.5215 59.553 28.7925 59.553 29.1024C59.553 29.4258 59.271 29.6844 58.9185 29.6844C58.5662 29.6844 58.2852 29.4258 58.2852 29.1024C58.2852 28.7925 58.5662 28.5215 58.9185 28.5215ZM58.9185 28.6246C59.2151 28.6246 59.4538 28.8446 59.4538 29.1024C59.4538 29.3746 59.2153 29.5943 58.9185 29.5943C58.6374 29.5943 58.3966 29.3746 58.3966 29.1024C58.3966 28.8446 58.6374 28.6246 58.9185 28.6246Z" fill="#FBB230"/>
<path d="M58.6797 29.3594V28.8706H58.904C58.9598 28.8706 59.002 28.8706 59.0308 28.8838C59.0578 28.8961 59.073 28.9093 59.0863 28.9217C59.1 28.948 59.1142 28.9735 59.1142 28.999C59.1142 29.0377 59.1 29.0762 59.0863 29.0896C59.0576 29.1151 59.0164 29.1282 58.9731 29.1404C59.002 29.1538 59.0162 29.1669 59.0305 29.1791C59.0441 29.1923 59.0728 29.2178 59.0863 29.2565L59.1564 29.3594H59.0305L58.9452 29.2433C58.9304 29.2046 58.9036 29.1925 58.8894 29.1793C58.8894 29.1669 58.8751 29.1669 58.8613 29.1538C58.8472 29.1538 58.8328 29.1538 58.8049 29.1538H58.7906V29.3594H58.6797ZM58.791 29.0762H58.862C58.9175 29.0762 58.9456 29.0762 58.96 29.064C58.9733 29.064 58.9889 29.064 58.9889 29.0507C59.0022 29.0377 59.0022 29.0253 59.0022 29.012C59.0022 28.9988 59.0022 28.9865 58.9889 28.9735C58.9733 28.96 58.96 28.96 58.9456 28.9478C58.9456 28.9478 58.9177 28.9478 58.8755 28.9478H58.7912V29.0762H58.791Z" fill="#FBB230"/>
<path fill-rule="evenodd" clip-rule="evenodd" d="M58.7759 23.6621C59.1282 23.6621 59.4095 23.9207 59.4095 24.2442C59.4095 24.5673 59.1282 24.8253 58.7759 24.8253C58.4237 24.8253 58.1426 24.5673 58.1426 24.2442C58.1426 23.9207 58.4237 23.6621 58.7759 23.6621ZM58.7759 23.7653C59.0725 23.7653 59.3115 23.985 59.3115 24.244C59.3115 24.515 59.0727 24.7349 58.7759 24.7349C58.4796 24.7349 58.2406 24.515 58.2406 24.244C58.2406 23.9852 58.4794 23.7653 58.7759 23.7653Z" fill="white"/>
<path d="M58.5352 24.4875V24.0107H58.7599C58.8163 24.0107 58.8588 24.0107 58.8866 24.0239C58.9008 24.0239 58.9276 24.0496 58.9422 24.0626C58.9565 24.0881 58.9698 24.1136 58.9698 24.1401C58.9698 24.1788 58.9565 24.2042 58.9276 24.2295C58.9143 24.2552 58.8723 24.2682 58.83 24.2815C58.8444 24.2937 58.8723 24.3071 58.8866 24.3202C58.9008 24.3324 58.9143 24.3581 58.9422 24.3968L59.0131 24.4875H58.8864L58.8017 24.3844C58.7738 24.3457 58.7597 24.3202 58.7453 24.3202C58.7318 24.3071 58.7318 24.2937 58.7183 24.2937C58.7028 24.2937 58.6896 24.2937 58.6617 24.2937H58.6338V24.4873H58.5352V24.4875ZM58.634 24.2175H58.7185C58.774 24.2175 58.8019 24.2175 58.8163 24.2044C58.83 24.2044 58.8444 24.191 58.8444 24.191C58.8587 24.1788 58.8587 24.1655 58.8587 24.1523C58.8587 24.1401 58.8444 24.1136 58.8444 24.1136C58.83 24.1015 58.8163 24.0881 58.8021 24.0881C58.788 24.0881 58.7599 24.0881 58.7185 24.0881H58.6342V24.2175H58.634Z" fill="white"/>
<path fill-rule="evenodd" clip-rule="evenodd" d="M49.7168 24.5792L50.6324 20.1855H51.7733L51.9148 20.6376C52.1258 20.4433 52.4779 20.1855 53.1827 20.1855L52.8304 21.3487C52.5205 21.3487 52.0408 21.2966 51.6473 22.1495C51.3515 22.7961 51.21 23.8683 51.055 24.5792H49.7168Z" fill="white"/>
<path fill-rule="evenodd" clip-rule="evenodd" d="M32.4439 19.0869H33.7108L33.4295 20.2499H34.1343L33.9226 21.1545H33.2891L32.9366 22.8995C32.8665 23.2228 32.9366 23.5461 33.6413 23.4161L33.5009 24.3859C32.7402 24.9157 31.2173 24.5279 31.4569 23.2228L32.4439 19.0869Z" fill="white"/>
<path fill-rule="evenodd" clip-rule="evenodd" d="M38.092 22.6406C38.2326 21.9298 38.5851 20.1855 36.3168 20.1855C34.2037 20.1855 33.9215 22.1241 33.9215 22.3819C33.8521 22.6406 33.8521 24.5792 36.1058 24.5792C36.6691 24.5792 37.4586 24.5147 37.8109 24.3857L38.0218 23.4805C37.8109 23.5458 37.0919 23.6103 36.5286 23.6103C36.0357 23.6103 35.1905 23.6103 35.3309 22.6404H38.092V22.6406Z" fill="white"/>
<path fill-rule="evenodd" clip-rule="evenodd" d="M22.7216 24.5792L23.849 19.2803H21.651L20.1007 22.5117L19.8188 19.2803H17.7758L16.6484 24.5792H17.9163L18.7626 20.7667L19.1149 24.5792H20.3126L22.1439 20.8312L21.3688 24.5792H22.7216Z" fill="white"/>
<path fill-rule="evenodd" clip-rule="evenodd" d="M24.2 20.3139L23.989 21.2838C24.3415 21.2838 25.1865 21.154 25.6091 21.154C26.032 21.154 26.5952 21.0897 26.3845 21.7361C26.032 21.7361 23.7066 21.4128 23.3544 23.2868C23.158 24.5275 24.7639 24.9799 25.7498 24.3854L25.8911 24.6434H27.088L27.5818 22.2524C28.1029 20.094 25.8347 20.0551 24.2 20.3139Z" fill="white"/>
<path fill-rule="evenodd" clip-rule="evenodd" d="M45.1797 20.7024C44.8553 20.5212 44.6579 20.5212 44.2497 20.5212C43.8551 20.5212 42.9249 20.8833 42.7978 21.8522C42.6004 23.0674 43.4602 23.6106 44.7138 23.2485L45.0528 24.2826C42.9113 25.2647 40.8671 23.7394 41.5439 21.3612C42.0928 19.5648 44.6859 18.4795 45.9827 19.9657L45.1797 20.7024Z" fill="white"/>
<path fill-rule="evenodd" clip-rule="evenodd" d="M56.3554 20.7021C52.9029 18.3236 51.5639 24.5791 54.2413 24.5791C54.6639 24.5791 55.0876 24.3856 55.3687 24.2559L55.5091 24.5791H56.9187L58.0463 19.0215H56.7073L56.3554 20.7021Z" fill="white"/>
<path fill-rule="evenodd" clip-rule="evenodd" d="M46.1943 20.3139L45.9833 21.2838C46.3345 21.2838 47.181 21.154 47.6028 21.154C48.0265 21.154 48.5192 21.0897 48.3785 21.7361C48.0265 21.7361 45.7014 21.4128 45.3499 23.2868C45.2071 24.1912 46.0536 24.6434 46.6881 24.6434C47.3215 24.6434 47.5331 24.5144 47.7441 24.3854L47.8847 24.6434H49.0833L49.576 22.2524C50.112 20.094 47.8426 20.0551 46.1943 20.3139Z" fill="white"/>
<path fill-rule="evenodd" clip-rule="evenodd" d="M35.334 21.8007H36.9543C37.1373 20.6244 35.6015 20.8573 35.334 21.8007Z" fill="#EB2230"/>
<path fill-rule="evenodd" clip-rule="evenodd" d="M26.175 22.6405C25.9631 22.6405 25.4702 22.5116 25.0465 22.7703C24.6249 23.0281 24.4834 23.4804 24.977 23.6102C25.3988 23.739 25.9631 23.4804 26.1035 23.0926L26.175 22.6405Z" fill="#EB2230"/>
<path fill-rule="evenodd" clip-rule="evenodd" d="M55.7212 21.413C55.2986 20.8955 54.3831 21.2842 54.1009 22.2529C53.8901 22.8993 54.3127 23.3515 54.7353 23.3515C55.6231 23.3517 56.1585 22.0207 55.7212 21.413Z" fill="#FBB230"/>
<path fill-rule="evenodd" clip-rule="evenodd" d="M48.2402 22.6405C48.0297 22.6405 47.5365 22.5116 47.1128 22.7703C46.6913 23.0281 46.5498 23.4804 47.0436 23.6102C47.4653 23.739 48.1 23.4804 48.1701 23.0926L48.2402 22.6405Z" fill="#FBB230"/>
<path fill-rule="evenodd" clip-rule="evenodd" d="M38.0938 24.6438L38.1652 24.1915L39.0104 20.25H40.1369L40.2773 20.7023C40.4892 20.508 40.8417 20.25 41.5462 20.25L41.1937 21.4131C40.9262 21.4131 40.3621 21.3611 39.9395 22.3952C39.6997 22.9897 39.559 23.9982 39.4321 24.6438H38.0938Z" fill="white"/>
<path fill-rule="evenodd" clip-rule="evenodd" d="M31.2775 21.3101H31.2205H31.1648L31.1091 21.2969L31.0523 21.2845H30.9956L30.9396 21.2711C30.6857 21.2456 30.4747 21.2322 30.2215 21.2456C29.5727 21.2967 29.2916 21.6711 29.8404 21.9555C30.2774 22.1887 30.6162 22.1496 30.9108 22.4086C31.5455 22.951 31.221 23.9982 30.5162 24.3984L30.3902 24.4505L30.2495 24.5025L30.0946 24.5404L29.9542 24.5793C29.2774 24.6826 28.3618 24.657 27.6992 24.4505L27.8822 23.584C28.4175 23.6873 29.2918 23.9073 29.7 23.6495C30.1652 23.365 29.7424 23.0285 29.4034 22.8865L29.235 22.835L29.0666 22.7707C27.7274 22.2141 28.0384 20.7279 29.3053 20.418C29.8127 20.3147 30.32 20.3147 30.8418 20.3535H30.9399C31.0672 20.3659 31.1799 20.3794 31.2924 20.4048H31.3483L31.3906 20.418H31.433L31.4608 20.4312H31.5031L31.2775 21.3101Z" fill="white"/>
</svg>

<svg width="76" height="44" viewBox="0 0 76 44" fill="none" xmlns="http://www.w3.org/2000/svg"><path fill-rule="evenodd" clip-rule="evenodd" d="M75.234 40.787c0 1.266-1.127 2.3-2.508 2.3H2.743c-1.381 0-2.509-1.034-2.509-2.3V2.388c0-1.266 1.128-2.3 2.509-2.3h69.983c1.381 0 2.508 1.034 2.508 2.3v38.399z" fill="#F8F8F8"/><path fill-rule="evenodd" clip-rule="evenodd" d="M46.73 33.924l.691-.013.691-.039.676-.09.662-.104.649-.142.648-.154.62-.208.62-.219.59-.246.578-.272.564-.297.55-.323.535-.348.508-.363.478-.387.479-.415.437-.426.424-.452.408-.466.38-.477.338-.505.339-.516.281-.53.282-.556.24-.556.212-.581.183-.582.154-.595.113-.62.085-.607.056-.634.013-.633-.013-.634-.056-.633-.085-.608-.113-.606-.154-.596-.183-.58-.212-.583-.24-.555-.282-.543-.281-.53-.339-.517-.338-.504-.38-.478-.408-.465-.424-.453-.437-.426-.479-.401-.478-.388-.508-.374-.535-.337-.55-.323-.564-.297-.577-.272-.591-.245-.62-.22-.62-.193-.648-.168-.649-.142-.662-.104-.676-.078-.691-.052-.69-.012-.69.012-.676.052-.677.078-.662.104-.649.142-.647.168-.621.194-.606.219-.592.245-.577.272-.564.297-.55.323-.52.337-.509.374-.492.388-.464.4-.452.428-.408.452-.41.465-.365.478-.353.504-.323.517-.297.53-.267.543-.24.555-.21.582-.184.581-.156.596-.111.606-.085.608-.057.633-.014.634.014.633.057.634.085.607.111.62.156.595.183.582.211.58.24.557.267.556.297.53.323.516.353.505.366.477.409.466.408.452.452.427.464.414.492.387.509.363.52.348.55.323.564.297.577.272.592.246.606.219.62.208.648.154.65.142.66.104.678.09.675.04.69.012z" fill="#FBB230"/><path fill-rule="evenodd" clip-rule="evenodd" d="M28.737 33.924l.69-.013.676-.039.677-.09.662-.104.649-.142.648-.154.62-.208.605-.219.592-.246.578-.272.563-.297.55-.323.52-.348.51-.363.492-.387.464-.415.452-.426.409-.452.408-.466.366-.477.352-.505.324-.516.296-.53.268-.556.24-.556.21-.581.184-.582.155-.595.112-.62.085-.607.057-.634.014-.633-.014-.634-.057-.633-.085-.608-.112-.606-.155-.596-.184-.58-.21-.583-.24-.555-.268-.543-.296-.53-.324-.517-.352-.504-.366-.478-.408-.465-.41-.453-.451-.426-.464-.401-.493-.388-.508-.374-.521-.337-.55-.323-.563-.297-.578-.272-.592-.245-.605-.22-.62-.193-.648-.168-.65-.142-.66-.104-.678-.078-.675-.052-.69-.012-.69.012-.692.052-.676.078-.662.104-.647.142-.65.168-.62.194-.62.219-.59.245-.578.272-.564.297-.55.323-.535.337-.508.374-.478.388-.479.4-.437.428-.424.452-.408.465-.38.478-.338.504-.339.517-.28.53-.283.543-.24.555-.21.582-.185.581-.14.596-.127.606-.084.608-.057.633-.013.634.013.633.057.634.084.607.127.62.14.595.184.582.211.58.24.557.282.556.281.53.339.516.338.505.38.477.408.466.424.452.437.427.479.414.478.387.508.363.536.348.549.323.564.297.577.272.592.246.62.219.62.208.649.154.647.142.662.104.676.09.691.04.69.012z" fill="#EB2230"/><path fill-rule="evenodd" clip-rule="evenodd" d="M36.164 13.981h7.144v-.672h-6.524l-.62.672zm-1.074 1.487h8.215v-.673h-7.792l-.423.673zm-.799 1.486h9.018v-.672h-8.694l-.324.672zm-.553 1.486h9.568v-.658h-9.342l-.226.659zm.326 7.211h9.272v-.671H33.84l.224.671zm.676 1.487h8.595v-.672h-8.933l.338.672zm.971 1.487h7.623v-.672h-8.088l.465.672zm1.324 1.486h6.298v-.672h-6.946l.648.672zm-3.621-10.185h9.891v-.66h-9.75l-.14.66zm6.033 4.24h3.777v-.672h-3.635l-.142.672zm.295-1.486h3.48v-.673h-3.338l-.142.672zm-6.582-.673h.986v.672h-.929l-.057-.672zm25.759 6.514c.352 0 .634.271.634.581 0 .324-.282.582-.634.582-.353 0-.634-.258-.634-.582 0-.31.281-.58.634-.58zm0 .104c.296 0 .535.22.535.477 0 .273-.239.492-.535.492-.282 0-.522-.22-.522-.492 0-.257.24-.477.522-.477z" fill="#FBB230"/><path d="M58.68 29.36v-.49h.224c.056 0 .098 0 .127.014a.191.191 0 01.055.038c.014.026.028.052.028.077 0 .039-.014.077-.028.09a.286.286 0 01-.113.051c.029.014.043.027.058.04.013.012.042.038.055.076l.07.103h-.125l-.086-.116c-.015-.038-.041-.05-.056-.064 0-.012-.014-.012-.028-.025h-.07v.205h-.111zm.111-.284h.071c.055 0 .084 0 .098-.012.013 0 .029 0 .029-.013.013-.013.013-.026.013-.039 0-.013 0-.026-.013-.038-.016-.014-.029-.014-.043-.026h-.156v.128z" fill="#FBB230"/><path fill-rule="evenodd" clip-rule="evenodd" d="M58.776 23.662c.352 0 .633.259.633.582 0 .323-.28.581-.633.581-.352 0-.633-.258-.633-.58 0-.324.28-.583.633-.583zm0 .103c.296 0 .535.22.535.479 0 .271-.238.49-.535.49-.296 0-.535-.219-.535-.49 0-.259.238-.479.535-.479z" fill="#fff"/><path d="M58.535 24.488v-.477h.225a.33.33 0 01.127.013c.014 0 .04.026.055.039a.166.166 0 01.028.077.108.108 0 01-.042.09c-.014.025-.056.038-.098.052.014.012.042.025.057.038.014.012.027.038.055.077l.071.09h-.127l-.084-.103c-.028-.038-.042-.064-.057-.064-.013-.013-.013-.026-.027-.026h-.084v.193h-.099zm.099-.27h.084c.056 0 .084 0 .098-.014.014 0 .028-.013.028-.013.015-.012.015-.025.015-.039 0-.012-.015-.038-.015-.038-.014-.012-.028-.026-.042-.026h-.168v.13z" fill="#fff"/><path fill-rule="evenodd" clip-rule="evenodd" d="M49.717 24.58l.915-4.394h1.141l.142.452c.21-.195.563-.453 1.268-.453l-.353 1.164c-.31 0-.79-.052-1.183.8-.295.647-.437 1.72-.592 2.43h-1.338zm-17.273-5.493h1.267l-.282 1.163h.705l-.211.904h-.634l-.352 1.745c-.07.324 0 .647.704.517l-.14.97c-.76.53-2.284.142-2.044-1.163l.987-4.136zm5.648 3.553c.14-.71.493-2.454-1.775-2.454-2.113 0-2.395 1.938-2.395 2.196-.07.259-.07 2.197 2.184 2.197.563 0 1.353-.064 1.705-.193l.21-.905c-.21.065-.93.13-1.492.13-.493 0-1.339 0-1.198-.97h2.761zm-15.37 1.94l1.127-5.3h-2.198l-1.55 3.232-.282-3.232h-2.043l-1.128 5.3h1.268l.847-3.813.352 3.812h1.198l1.83-3.748-.774 3.748h1.353zm1.478-4.266l-.211.97c.352 0 1.197-.13 1.62-.13.423 0 .986-.064.775.582-.352 0-2.677-.323-3.03 1.55-.196 1.241 1.41 1.694 2.396 1.1l.141.257h1.197l.494-2.39c.52-2.159-1.747-2.198-3.382-1.94zm20.98.388c-.325-.18-.522-.18-.93-.18-.395 0-1.325.361-1.452 1.33-.198 1.215.662 1.759 1.916 1.396l.339 1.035c-2.142.982-4.186-.544-3.51-2.922.55-1.796 3.143-2.881 4.44-1.395l-.803.736z" fill="#fff"/><path fill-rule="evenodd" clip-rule="evenodd" d="M56.355 20.702c-3.452-2.378-4.791 3.877-2.114 3.877.423 0 .847-.193 1.128-.323l.14.323h1.41l1.127-5.558h-1.339l-.352 1.681zm-10.161-.388l-.21.97c.35 0 1.197-.13 1.619-.13.423 0 .916-.064.776.582-.352 0-2.678-.323-3.03 1.55-.142.905.705 1.357 1.34 1.357.633 0 .844-.129 1.055-.258l.14.258h1.2l.492-2.39c.536-2.159-1.733-2.198-3.382-1.94z" fill="#fff"/><path fill-rule="evenodd" clip-rule="evenodd" d="M35.334 21.8h1.62c.183-1.176-1.352-.943-1.62 0zm-9.159.84c-.212 0-.705-.128-1.128.13-.422.258-.564.71-.07.84.422.129.986-.13 1.127-.517l.071-.453z" fill="#EB2230"/><path fill-rule="evenodd" clip-rule="evenodd" d="M55.721 21.413c-.422-.518-1.338-.129-1.62.84-.21.646.212 1.099.634 1.099.888 0 1.423-1.331.986-1.939zM48.24 22.64c-.21 0-.704-.128-1.127.13-.422.258-.563.71-.07.84.422.129 1.057-.13 1.127-.517l.07-.453z" fill="#FBB230"/><path fill-rule="evenodd" clip-rule="evenodd" d="M38.094 24.644l.071-.452.845-3.942h1.127l.14.452c.212-.194.565-.452 1.27-.452l-.353 1.163c-.268 0-.832-.052-1.255.982-.24.595-.38 1.603-.507 2.249h-1.338zm-6.817-3.334h-.112l-.056-.013-.057-.012h-.056l-.056-.014a4.437 4.437 0 00-.719-.025c-.648.05-.93.425-.38.71.436.233.775.194 1.07.453.634.542.31 1.59-.395 1.99l-.126.052-.14.052-.155.037-.14.04c-.678.103-1.593.077-2.256-.13l.183-.866c.535.103 1.41.323 1.818.066.465-.285.042-.621-.297-.763l-.168-.052-.168-.064c-1.34-.557-1.029-2.043.238-2.353.508-.103 1.015-.103 1.537-.064h.098c.127.012.24.025.352.05h.056l.043.014h.042l.028.013h.042l-.226.88z" fill="#fff"/></svg>
